rospo-icon-theme-classic-common/32x32/apps/com.github.philip-scott.spice-up.svg

<svg height="32" width="32" xmlns="http://www.w3.org/2000/svg"><g transform="scale(1 -1)"><rect height="26" opacity=".2" rx="1.3" width="26" x="3" y="-31"/><rect fill="#e4e4e4" height="26" rx="1.3" width="26" x="3" y="-30"/><rect fill="#438bf6" height="17" rx="1" ry=".85" width="20" x="6" y="-27"/></g><path d="m12.954966 15.000255a.93319073.93845344 0 0 0 -.954966.938361v3.561 3.561919a.93319073.93845344 0 0 0 1.399646.812817l3.067194-1.780502 3.067193-1.781416a.93319073.93845344 0 0 0 0-1.624719l-3.067193-1.781416-3.067194-1.7805a.93319073.93845344 0 0 0 -.44468-.125544z" opacity=".2"/><path d="m12.954966 14.000255a.93319073.93845344 0 0 0 -.954966.938361v3.561 3.561919a.93319073.93845344 0 0 0 1.399646.812817l3.067194-1.780502 3.067193-1.781416a.93319073.93845344 0 0 0 0-1.624719l-3.067193-1.781416-3.067194-1.7805a.93319073.93845344 0 0 0 -.44468-.125544z" fill="#fff"/><rect height="6" opacity=".2" rx="1.275" ry="1.123" width="30" x="1" y="2"/><rect fill="#4f4f4f" height="6" rx="1.275" ry="1.123" width="30" x="1" y="1"/><path d="m2.2753906 1c-.7066215 0-1.2753906.5008131-1.2753906 1.1230469v1c0-.6222338.5687691-1.1230469 1.2753906-1.1230469h27.4492184c.706622 0 1.275391.5008131 1.275391 1.1230469v-1c0-.6222338-.568769-1.1230469-1.275391-1.1230469z" fill="#fff" opacity=".1"/></svg>

<svg xmlns="http://www.w3.org/2000/svg" width="32" height="32" version="1">
 <rect width="26" height="26" x="3" y="-31" rx="1.3" ry="1.3" transform="scale(1,-1)" style="opacity:0.2"/>
 <rect style="fill:#cccccc" width="26" height="26" x="3" y="-30" rx="1.3" ry="1.3" transform="scale(1,-1)"/>
 <rect width="20" height="17" x="6" y="-27" rx="1" ry=".85" transform="scale(1,-1)" style="fill:#438bf6"/>
 <path d="M 12.954966,15.000255 A 0.93319073,0.93845344 0 0 0 12,15.938616 l 0,3.561 0,3.561919 a 0.93319073,0.93845344 0 0 0 1.399646,0.812817 l 3.067194,-1.780502 3.067193,-1.781416 a 0.93319073,0.93845344 0 0 0 0,-1.624719 l -3.067193,-1.781416 -3.067194,-1.7805 a 0.93319073,0.93845344 0 0 0 -0.44468,-0.125544 z" style="opacity:0.2"/>
 <path style="fill:#ffffff" d="M 12.954966,14.000255 A 0.93319073,0.93845344 0 0 0 12,14.938616 l 0,3.561 0,3.561919 a 0.93319073,0.93845344 0 0 0 1.399646,0.812817 l 3.067194,-1.780502 3.067193,-1.781416 a 0.93319073,0.93845344 0 0 0 0,-1.624719 l -3.067193,-1.781416 -3.067194,-1.7805 a 0.93319073,0.93845344 0 0 0 -0.44468,-0.125544 z"/>
 <rect width="30" height="6" x="1" y="2" rx="1.275" ry="1.123" style="opacity:0.2"/>
 <rect style="fill:#4f4f4f" width="30" height="6" x="1" y="1" rx="1.275" ry="1.123"/>
 <path style="opacity:0.1;fill:#ffffff" d="M 2.2753906 1 C 1.5687691 1 1 1.5008131 1 2.1230469 L 1 3.1230469 C 1 2.5008131 1.5687691 2 2.2753906 2 L 29.724609 2 C 30.431231 2 31 2.5008131 31 3.1230469 L 31 2.1230469 C 31 1.5008131 30.431231 1 29.724609 1 L 2.2753906 1 z"/>
</svg>
